resources/img/scalable/actions/flypie-move-updown-symbolic.svg

<?xml version="1.0" encoding="UTF-8" standalone="no"?>
<svg
   xmlns:dc="http://purl.org/dc/elements/1.1/"
   xmlns:cc="http://creativecommons.org/ns#"
   xmlns:rdf="http://www.w3.org/1999/02/22-rdf-syntax-ns#"
   xmlns:svg="http://www.w3.org/2000/svg"
   xmlns="http://www.w3.org/2000/svg"
   xmlns:sodipodi="http://sodipodi.sourceforge.net/DTD/sodipodi-0.dtd"
   xmlns:inkscape="http://www.inkscape.org/namespaces/inkscape"
   width="4.2333336mm"
   height="4.2333336mm"
   version="1.1"
   viewBox="0 0 4.2333334 4.2333334"
   id="svg923"
   sodipodi:docname="flypie-move-updown-symbolic.svg"
   inkscape:version="1.0.2 (e86c870879, 2021-01-15)">
  <defs
     id="defs927" />
  <sodipodi:namedview
     pagecolor="#ffffff"
     bordercolor="#666666"
     borderopacity="1"
     objecttolerance="10"
     gridtolerance="10"
     guidetolerance="10"
     inkscape:pageopacity="0"
     inkscape:pageshadow="2"
     inkscape:window-width="1485"
     inkscape:window-height="1131"
     id="namedview925"
     showgrid="false"
     inkscape:zoom="36.104999"
     inkscape:cx="13.987711"
     inkscape:cy="8.4825443"
     inkscape:window-x="387"
     inkscape:window-y="32"
     inkscape:window-maximized="0"
     inkscape:current-layer="svg923"
     inkscape:document-rotation="0"
     fit-margin-top="0"
     fit-margin-left="0"
     fit-margin-right="0"
     fit-margin-bottom="0"
     showguides="true"
     inkscape:guide-bbox="true">
    <sodipodi:guide
       position="2.1105109,4.3798964"
       orientation="1,0"
       id="guide8242" />
    <sodipodi:guide
       position="1.6781493,2.1154941"
       orientation="0,-1"
       id="guide8244" />
  </sodipodi:namedview>
  <metadata
     id="metadata907">
    <rdf:RDF>
      <cc:Work
         rdf:about="">
        <dc:format>image/svg+xml</dc:format>
        <dc:type
           rdf:resource="http://purl.org/dc/dcmitype/StillImage" />
        <dc:title></dc:title>
      </cc:Work>
    </rdf:RDF>
  </metadata>
  <path
     id="path10297"
     d="M 1.5765334,2.9225052 H 0.76624702 L 2.1222365,4.2402513 3.4782259,2.9225052 H 2.6348666 V 2.6386934 H 1.5765334 Z"
     style="color:#000000;display:inline;overflow:visible;visibility:visible;vector-effect:none;fill:#2e3436;fill-opacity:1;stroke:none;stroke-width:0.529167;stroke-linecap:round;stroke-linejoin:round;stroke-miterlimit:4;stroke-dasharray:none;stroke-dashoffset:0;stroke-opacity:1;marker:none;enable-background:new"
     inkscape:connector-curvature="0"
     sodipodi:nodetypes="cccccccc" />
  <rect
     y="-2.3775599"
     x="1.5765336"
     height="0.52916664"
     width="1.0583333"
     id="rect10299"
     style="display:inline;vector-effect:none;fill:#2e3436;fill-opacity:1;fill-rule:nonzero;stroke:none;stroke-width:0.529167;stroke-linecap:round;stroke-linejoin:round;stroke-miterlimit:4;stroke-dasharray:none;stroke-dashoffset:0;stroke-opacity:1;marker:none;marker-start:none;marker-mid:none;marker-end:none;paint-order:normal"
     transform="scale(1,-1)" />
  <path
     id="path8455"
     d="M 1.5765334,1.321725 H 0.76624702 L 2.1222365,0.00397894 3.4782259,1.321725 H 2.6348666 V 1.6055368 H 1.5765334 Z"
     style="color:#000000;display:inline;overflow:visible;visibility:visible;vector-effect:none;fill:#2e3436;fill-opacity:1;stroke:none;stroke-width:0.529167;stroke-linecap:round;stroke-linejoin:round;stroke-miterlimit:4;stroke-dasharray:none;stroke-dashoffset:0;stroke-opacity:1;marker:none;enable-background:new"
     inkscape:connector-curvature="0"
     sodipodi:nodetypes="cccccccc" />
</svg>

<svg xmlns="http://www.w3.org/2000/svg" width="16" height="16" viewBox="0 0 4.233 4.233"><path d="M1.577 2.923h-.81L2.121 4.24l1.356-1.317h-.843v-.284H1.577Z" style="color:#000;display:inline;overflow:visible;visibility:visible;vector-effect:none;fill:#2e3436;fill-opacity:1;stroke:none;stroke-width:.529167;stroke-linecap:round;stroke-linejoin:round;stroke-miterlimit:4;stroke-dasharray:none;stroke-dashoffset:0;stroke-opacity:1;marker:none;enable-background:new"/><path style="display:inline;vector-effect:none;fill:#2e3436;fill-opacity:1;fill-rule:nonzero;stroke:none;stroke-width:.529167;stroke-linecap:round;stroke-linejoin:round;stroke-miterlimit:4;stroke-dasharray:none;stroke-dashoffset:0;stroke-opacity:1;marker:none;marker-start:none;marker-mid:none;marker-end:none;paint-order:normal" transform="scale(1 -1)" d="M1.577-2.378h1.058v.529H1.577z"/><path d="M1.577 1.322h-.81L2.121.004l1.356 1.318h-.843v.284H1.577Z" style="color:#000;display:inline;overflow:visible;visibility:visible;vector-effect:none;fill:#2e3436;fill-opacity:1;stroke:none;stroke-width:.529167;stroke-linecap:round;stroke-linejoin:round;stroke-miterlimit:4;stroke-dasharray:none;stroke-dashoffset:0;stroke-opacity:1;marker:none;enable-background:new"/></svg>
